X:186
T:Joseph's Waltz (in G)
M:3/4
L:1/8
C:Frederick E. Wilson copyright 2005
R:Waltz
K:G
D|:"G"G4 GA|B4 Bc|"Bm"d4 de|d4 d2|"C"e4 ef|g2f2e2|"G"d4de|d4d2|"C"e4ef|
g2f2e2|"G"d4de|d2c2B2|1"Am"c4cd|c2B2A2|"D"B4Bc|B4A2:|2"Am"c4cd|e2d2c2|
"D"B4Bc|B4A2||:"Em"G4AG|
"D"F4GF|"C"E4E2|"G"D4D2|"C"E4E2|"Am"E2F2G2|"D"F4FG|A2G2F2|
"Em"G4AG|"D"F4GF|"C"E4E2|"Bm"D4D2|"C"E3EE2|1"Am"E2F2G2|"D"F2G2A2|B4A2:|2
"Am"E2F2G2|
"Am"A2B2c2|"D"d4D2:|
